X:3388
R:Slängpolska
T:Polonäs i D ur Carl Råmelius notbok
O:Rånhammar, Närke
N:Notsamlingen är från 1774.
M:3/4
L:1/16  
K:D
Z:Nils L 
B: [[http://www.samlingarna.sormlandsspel.se/wp-content/uploads/2013/04/ramelius_carl.pdf|Carl Råmelius notbok]] (pdf) nr 63 sid 23
(DE)FG (A2d2) (f2d2) | (dc)BA (B2g2) g2e2 | (dc)Bc A2Bc d2fg | a2ba (gf)ef g2f2 |
(DE)FG (A2d2) (f2d2) | (dc)BA (B2g2) g2e2 | (dc)Bc A2Bc d2fg | a2ba (gf)ge d4 ::
d2f2 f2ef (gf)ed | d2cd e4 c4 | d2f2 f2ef (gf)ed | d2cd e4 c4 | 
(DE)FG (A2d2) (f2d2) | (dc)BA (B2g2) g2e2 | (dc)Bc A2Bc d2fg | a2ba (gf)ef d4 :|
(:musicend:)
(:music:)
